X:456
T:Farewell To The Creeks 
C:Joe Buchanan's Scottish Tome - Page 082.0
I:082 0
C:P.M. J. Robertson
R:Pipe March
Z:Carl Allison
L:1/8
M:6/8
K:A
a |e2 c c>Bc | d>ef e2 d | c2 e A2 e | e>dc B2 a |
e2 c c>Bc | d>ef e2 d | c2 e e>dc | B3 A2 :|
f |e>ce f<ag | f>df e>cA | c2 c c>ec | d>cd B2 f |
e>ce f<ag | f>df e>cA | c2 e e>dc |B3 A2 :|
a |c3 d2 f | c>ec c>BA | d2 f c2 e | e>dc B2 a |
c3 d2 f | c<ec c>BA | c2 e e>dc | B3 A2 :|
e |a2 e f2 a | e2 f e>cA | d2 f c2 e | e<dc B2 e |
a2 e f2 a | e2 f e>cA | c2 e e>dc | B3 A2 :|

